germany/municipalities/07231065.svg

<?xml version="1.0" encoding="UTF-8" standalone="no"?>
<!-- Created with Inkscape (http://www.inkscape.org/) -->

<svg
   xmlns:dc="http://purl.org/dc/elements/1.1/"
   xmlns:cc="http://creativecommons.org/ns#"
   xmlns:rdf="http://www.w3.org/1999/02/22-rdf-syntax-ns#"
   xmlns:svg="http://www.w3.org/2000/svg"
   xmlns="http://www.w3.org/2000/svg"
   xmlns:sodipodi="http://sodipodi.sourceforge.net/DTD/sodipodi-0.dtd"
   xmlns:inkscape="http://www.inkscape.org/namespaces/inkscape"
   width="192.21164mm"
   height="209.34358mm"
   viewBox="0 0 192.21164 209.34358"
   version="1.1"
   id="svg997"
   inkscape:version="0.92.4 (5da689c313, 2019-01-14)"
   sodipodi:docname="DEU Karl COA.svg">
  <defs
     id="defs991">
    <inkscape:path-effect
       effect="spiro"
       id="path-effect1699"
       is_visible="true" />
    <inkscape:path-effect
       effect="spiro"
       id="path-effect1699-0"
       is_visible="true" />
  </defs>
  <sodipodi:namedview
     id="base"
     pagecolor="#ffffff"
     bordercolor="#666666"
     borderopacity="1.0"
     inkscape:pageopacity="0.0"
     inkscape:pageshadow="2"
     inkscape:zoom="0.69260142"
     inkscape:cx="363.23459"
     inkscape:cy="395.60991"
     inkscape:document-units="mm"
     inkscape:current-layer="layer1"
     showgrid="false"
     inkscape:window-width="1366"
     inkscape:window-height="745"
     inkscape:window-x="-8"
     inkscape:window-y="-8"
     inkscape:window-maximized="1"
     inkscape:snap-nodes="false"
     fit-margin-top="0"
     fit-margin-left="0"
     fit-margin-right="0"
     fit-margin-bottom="0"
     inkscape:snap-midpoints="true"
     inkscape:snap-smooth-nodes="true" />
  <metadata
     id="metadata994">
    <rdf:RDF>
      <cc:Work
         rdf:about="">
        <dc:format>image/svg+xml</dc:format>
        <dc:type
           rdf:resource="http://purl.org/dc/dcmitype/StillImage" />
        <dc:title></dc:title>
      </cc:Work>
    </rdf:RDF>
  </metadata>
  <g
     inkscape:label="Ebene 1"
     inkscape:groupmode="layer"
     id="layer1"
     transform="translate(-1.7969762,-8.8245319)">
    <g
       id="g1677-6"
       transform="translate(103.79836,21.835618)"
       style="fill:#ff0000;fill-opacity:1;stroke:none;stroke-opacity:1">
      <path
         sodipodi:nodetypes="ccccccc"
         id="path10563-0-6-7-7-6"
         d="M 88.64532,-11.458864 87.68632,106.1218 C 85.59365,155.58119 44.24671,194.75259 -5.8955753,194.78028 -55.992746,194.71958 -97.355146,155.53412 -99.477457,106.1218 l -0.958993,-117.580664 h 94.5386237 z"
         inkscape:connector-curvature="0"
         style="fill:#ff0000;fill-opacity:1;fill-rule:evenodd;stroke:none;stroke-width:3.10444427;stroke-opacity:1" />
    </g>
    <path
       style="fill:#ffffff;fill-opacity:1;stroke:#000000;stroke-width:2.11666656;stroke-linecap:round;stroke-linejoin:round;stroke-miterlimit:4;stroke-dasharray:none;stroke-opacity:1"
       d="m 92.787345,117.17606 v 28.91348 h 10.230905 v -28.91348 z m -26.708965,15.42076 -5.115449,8.85992 25.039815,14.457 5.115448,-8.86044 z m 63.64883,0 -25.03982,14.45648 5.11545,8.86044 25.03982,-14.457 z m -43.723948,25.24394 -25.040331,14.457 5.115449,8.85992 25.040333,-14.457 z m 23.799068,0 -5.11545,8.85992 25.04033,14.457 5.11545,-8.85992 z m -17.014985,9.82317 v 28.914 h 10.230905 v -28.914 z"
       id="rect4569"
       inkscape:connector-curvature="0" />
    <path
       style="fill:#ffffff;stroke:#000000;stroke-width:11;stroke-linecap:butt;stroke-linejoin:round;stroke-miterlimit:4;stroke-dasharray:none;stroke-opacity:1"
       d="M 5.9140625 5.8671875 L 9.5390625 450.26562 C 11.364177 492.75853 20.870144 533.24898 36.693359 570.45312 C 64.431698 552.36477 90.64645 531.94007 114.91797 509.41211 C 193.10058 436.8458 250.13564 343.80173 291.95117 245.66992 C 324.71182 168.78794 348.67653 88.161751 363.22656 5.8671875 L 5.9140625 5.8671875 z "
       transform="matrix(0.26458333,0,0,0.26458333,1.7969762,8.8245319)"
       id="path1697" />
    <path
       style="fill:#ffd700;stroke:#000000;stroke-width:11;stroke-linecap:butt;stroke-linejoin:round;stroke-miterlimit:4;stroke-dasharray:none;stroke-opacity:1;fill-opacity:1"
       d="M 363.22656 5.8671875 C 377.7766 88.161751 401.73936 168.78794 434.5 245.66992 C 476.31553 343.80173 533.35059 436.8458 611.5332 509.41211 C 635.8324 531.96576 662.08004 552.41202 689.85352 570.51562 C 705.65232 533.30008 715.13048 492.78924 716.92969 450.26562 L 720.55469 5.8671875 L 363.22656 5.8671875 z "
       transform="matrix(0.26458333,0,0,0.26458333,1.7969762,8.8245319)"
       id="path1697-0" />
    <path
       style="fill:#ff0000;fill-opacity:1;stroke:#000000;stroke-width:7.99999952;stroke-linecap:round;stroke-linejoin:round;stroke-miterlimit:4;stroke-dasharray:none;stroke-opacity:1"
       d="M 116.95703 5.8671875 L 116.95703 187.6543 L 7.3964844 187.6543 L 8.234375 290.20898 L 116.95703 290.20898 L 116.95703 507.48633 C 156.27364 470.63951 190.2039 428.60223 219.51367 383.35352 L 219.51367 290.20898 L 271.70703 290.20898 C 278.8226 275.51728 285.56637 260.65364 291.95117 245.66992 C 300.09734 226.55267 307.6991 207.20265 314.74805 187.6543 L 219.51367 187.6543 L 219.51367 5.8671875 L 116.95703 5.8671875 z "
       transform="matrix(0.26458333,0,0,0.26458333,1.7969762,8.8245319)"
       id="rect4309-4" />
    <path
       style="fill:#ff0000;fill-opacity:1;stroke:#000000;stroke-width:7.99999952;stroke-linecap:round;stroke-linejoin:round;stroke-miterlimit:4;stroke-dasharray:none;stroke-opacity:1"
       d="M 363.22656 5.8671875 C 368.85776 37.717056 375.90496 69.315192 384.32031 100.54492 L 717.25195 410.8125 L 718.39648 270.54297 L 434.38672 5.8671875 L 363.22656 5.8671875 z "
       transform="matrix(0.26458333,0,0,0.26458333,1.7969762,8.8245319)"
       id="rect4416-1" />
    <g
       id="g1677"
       transform="translate(103.79836,21.835618)"
       style="stroke:#000000;stroke-opacity:1">
      <path
         sodipodi:nodetypes="ccccccc"
         id="path10563-0-6-7-7"
         d="M 88.64532,-11.458864 87.68632,106.1218 C 85.59365,155.58119 44.24671,194.75259 -5.8955753,194.78028 -55.992746,194.71958 -97.355146,155.53412 -99.477457,106.1218 l -0.958993,-117.580664 h 94.5386237 z"
         inkscape:connector-curvature="0"
         style="fill:none;fill-rule:evenodd;stroke:#000000;stroke-width:3.10444427;stroke-opacity:1" />
    </g>
    <path
       inkscape:connector-curvature="0"
       style="fill:none;fill-opacity:1;stroke:#000000;stroke-width:2.9104166;stroke-linecap:butt;stroke-linejoin:round;stroke-miterlimit:4;stroke-dasharray:none;stroke-opacity:1"
       d="m 97.900668,10.376893 c 3.849702,21.77377 10.189842,43.106115 18.857772,63.447806 11.06369,25.964041 26.15421,50.581951 46.84003,69.781781 6.42916,5.96732 13.37385,11.37706 20.72225,16.16697 4.1801,-9.84661 6.68786,-20.5651 7.1639,-31.81614 l 0.95912,-117.580417 z"
       id="path1697-0-3" />
    <path
       inkscape:connector-curvature="0"
       style="fill:none;fill-opacity:1;stroke:#000000;stroke-width:2.9104166;stroke-linecap:butt;stroke-linejoin:round;stroke-miterlimit:4;stroke-dasharray:none;stroke-opacity:1"
       d="M 97.902737,10.368626 C 94.053039,32.142396 87.712893,53.474741 79.044973,73.816433 67.981282,99.780473 52.890756,124.39838 32.20494,143.59821 25.775777,149.56553 18.831089,154.97527 11.482689,159.76518 7.3025898,149.91857 4.7948258,139.20008 4.3187848,127.94904 L 3.3596708,10.368626 Z"
       id="path1697-0-4" />
    <path
       style="fill:#ffffff;fill-opacity:1;stroke:#000000;stroke-width:2.11666656;stroke-linecap:round;stroke-linejoin:round;stroke-miterlimit:4;stroke-dasharray:none;stroke-opacity:1"
       d="m 97.902795,108.48666 a 48.390815,48.390815 0 0 0 -48.390844,48.39085 48.390815,48.390815 0 0 0 48.390844,48.39033 48.390815,48.390815 0 0 0 48.390845,-48.39033 48.390815,48.390815 0 0 0 -48.390845,-48.39085 z m 0,12.12123 a 36.269242,36.269242 0 0 1 36.269105,36.26962 36.269242,36.269242 0 0 1 -36.269105,36.2691 36.269242,36.269242 0 0 1 -36.26962,-36.2691 36.269242,36.269242 0 0 1 36.26962,-36.26962 z m 0,21.24056 a 15.028677,15.028677 0 0 0 -15.02854,15.02854 15.028677,15.028677 0 0 0 15.02854,15.02906 15.028677,15.028677 0 0 0 15.028535,-15.02906 15.028677,15.028677 0 0 0 -15.028535,-15.02854 z m 0,8.11837 a 6.9105575,6.9105575 0 0 1 6.910685,6.91017 6.9105575,6.9105575 0 0 1 -6.910685,6.91069 6.9105575,6.9105575 0 0 1 -6.910689,-6.91069 6.9105575,6.9105575 0 0 1 6.910689,-6.91017 z"
       id="path4522"
       inkscape:connector-curvature="0" />
    <circle
       style="fill:none;fill-opacity:1;stroke:#000000;stroke-width:1.32291675;stroke-linecap:round;stroke-linejoin:round;stroke-miterlimit:4;stroke-dasharray:none;stroke-opacity:1"
       id="path4522-8"
       cx="97.902794"
       cy="156.87724"
       r="44.27615" />
  </g>
</svg>

<svg xmlns="http://www.w3.org/2000/svg" width="726.469" height="791.22" viewBox="0 0 192.212 209.344"><g transform="translate(-1.797 -8.825)"><g style="fill:red;fill-opacity:1;stroke:none;stroke-opacity:1"><path d="m88.645-11.459-.959 117.58c-2.092 49.46-43.44 88.632-93.582 88.66-50.097-.061-91.46-39.247-93.581-88.66l-.96-117.58h94.54z" style="fill:red;fill-opacity:1;fill-rule:evenodd;stroke:none;stroke-width:3.10444427;stroke-opacity:1" transform="translate(103.798 21.836)"/></g><path style="fill:#fff;fill-opacity:1;stroke:#000;stroke-width:2.11666656;stroke-linecap:round;stroke-linejoin:round;stroke-miterlimit:4;stroke-dasharray:none;stroke-opacity:1" d="M92.787 117.176v28.914h10.231v-28.914zm-26.709 15.42-5.115 8.86 25.04 14.458 5.115-8.86zm63.65 0-25.04 14.457 5.115 8.86 25.04-14.456zm-43.725 25.245-25.04 14.457 5.115 8.86 25.04-14.457zm23.8 0-5.116 8.86 25.04 14.457 5.116-8.86zm-17.016 9.823v28.914h10.231v-28.914z"/><path style="fill:#fff;stroke:#000;stroke-width:11;stroke-linecap:butt;stroke-linejoin:round;stroke-miterlimit:4;stroke-dasharray:none;stroke-opacity:1" d="M5.914 5.867 9.54 450.266c1.825 42.493 11.331 82.983 27.154 120.187 27.739-18.088 53.953-38.513 78.225-61.04 78.183-72.567 135.218-165.611 177.033-263.743A1101.671 1101.671 0 0 0 363.227 5.867H5.914z" transform="matrix(.26458 0 0 .26458 1.797 8.825)"/><path style="fill:gold;stroke:#000;stroke-width:11;stroke-linecap:butt;stroke-linejoin:round;stroke-miterlimit:4;stroke-dasharray:none;stroke-opacity:1;fill-opacity:1" d="M363.227 5.867A1101.668 1101.668 0 0 0 434.5 245.67c41.816 98.132 98.85 191.176 177.033 263.742 24.3 22.554 50.547 43 78.32 61.104 15.8-37.216 25.277-77.727 27.077-120.25l3.625-444.399H363.227z" transform="matrix(.26458 0 0 .26458 1.797 8.825)"/><path style="fill:red;fill-opacity:1;stroke:#000;stroke-width:7.99999952;stroke-linecap:round;stroke-linejoin:round;stroke-miterlimit:4;stroke-dasharray:none;stroke-opacity:1" d="M116.957 5.867v181.787H7.397l.837 102.555h108.723v217.277c39.317-36.846 73.247-78.884 102.557-124.132v-93.145h52.193a1015.085 1015.085 0 0 0 20.244-44.54 1098.873 1098.873 0 0 0 22.797-58.015h-95.234V5.867H116.957zM363.227 5.867a1100.064 1100.064 0 0 0 21.093 94.678l332.932 310.268 1.144-140.27L434.386 5.867h-71.16z" transform="matrix(.26458 0 0 .26458 1.797 8.825)"/><g style="stroke:#000;stroke-opacity:1"><path d="m88.645-11.459-.959 117.58c-2.092 49.46-43.44 88.632-93.582 88.66-50.097-.061-91.46-39.247-93.581-88.66l-.96-117.58h94.54z" style="fill:none;fill-rule:evenodd;stroke:#000;stroke-width:3.10444427;stroke-opacity:1" transform="translate(103.798 21.836)"/></g><path style="fill:none;fill-opacity:1;stroke:#000;stroke-width:2.9104166;stroke-linecap:butt;stroke-linejoin:round;stroke-miterlimit:4;stroke-dasharray:none;stroke-opacity:1" d="M97.9 10.377a291.483 291.483 0 0 0 18.858 63.448c11.064 25.964 26.155 50.582 46.84 69.781a154.43 154.43 0 0 0 20.723 16.167 91.114 91.114 0 0 0 7.164-31.816l.959-117.58z"/><path style="fill:none;fill-opacity:1;stroke:#000;stroke-width:2.9104166;stroke-linecap:butt;stroke-linejoin:round;stroke-miterlimit:4;stroke-dasharray:none;stroke-opacity:1" d="M97.903 10.369a291.483 291.483 0 0 1-18.858 63.447c-11.064 25.964-26.154 50.582-46.84 69.782a154.43 154.43 0 0 1-20.722 16.167 91.114 91.114 0 0 1-7.164-31.816l-.96-117.58z"/><path style="fill:#fff;fill-opacity:1;stroke:#000;stroke-width:2.11666656;stroke-linecap:round;stroke-linejoin:round;stroke-miterlimit:4;stroke-dasharray:none;stroke-opacity:1" d="M97.903 108.487a48.39 48.39 0 0 0-48.391 48.39 48.39 48.39 0 0 0 48.39 48.39 48.39 48.39 0 0 0 48.392-48.39 48.39 48.39 0 0 0-48.391-48.39zm0 12.12a36.27 36.27 0 0 1 36.269 36.27 36.27 36.27 0 0 1-36.27 36.27 36.27 36.27 0 0 1-36.269-36.27 36.27 36.27 0 0 1 36.27-36.27zm0 21.241a15.029 15.029 0 0 0-15.029 15.029 15.029 15.029 0 0 0 15.029 15.029 15.029 15.029 0 0 0 15.028-15.029 15.029 15.029 0 0 0-15.028-15.029zm0 8.119a6.91 6.91 0 0 1 6.91 6.91 6.91 6.91 0 0 1-6.91 6.91 6.91 6.91 0 0 1-6.91-6.91 6.91 6.91 0 0 1 6.91-6.91z"/><circle style="fill:none;fill-opacity:1;stroke:#000;stroke-width:1.32291675;stroke-linecap:round;stroke-linejoin:round;stroke-miterlimit:4;stroke-dasharray:none;stroke-opacity:1" cx="97.903" cy="156.877" r="44.276"/></g></svg>
